!!!!SEGMENT: pl-kk--kk-i-385--013_anonim--stabat-mater.krn
!!!cenid: 17xx:1993
!!!COM: Anonim
!!!COM-rismID: pe30004985
!!!CDT:
!!!CNT:
!!!OTL: Stabat Mater
!!!PDT:
!!!AGN: Sacred
!!!SMS-siglum: PL-Kk
!!!SMS-shelfmark: Kk.I.385
!!!SMS-shelfwork: 013 W
!!!SMS-variant:
!!!SMS-altvar:
!!!NIFC-rismSourceID: 1001143381
!!!NIFC-rismChildID: 1001143578
!!!NIFC-islandoraID: pl-kk:6917
!!!URL-pdf-islandora: https://repozytorium.nifc.pl/islandora/object/pl-kk%3A6917/datastream/PDF/view
!!!URL-scan: https://polish.musicsources.pl/pl/lokalizacje/galeria/rekopisy/5997 @EN{Scan on Polish Music Sources Website} @PL{Skany w portalu Dziedzictwo Muzyki Polskiej w otwartym dostępie}
!!!ONB-nifc: UWAGA: numeracja zgodna z numeracją utworów w źródle
!!!AIN: 1 alto 1 soprn 1 tenor
!!!key:
**kern	**text	**text	**kern	**text	**text	**kern	**text	**text
*part3	*part3	*part3	*part2	*part2	*part2	*part1	*part1	*part1
*staff3	*staff3	*staff3	*staff2	*staff2	*staff2	*staff1	*staff1	*staff1
*Itenor	*	*	*Ialto	*	*	*Isoprn	*	*
*I"Tenore.	*	*	*I"Alto.	*	*	*I"Soprano.	*	*
*I'T	*	*	*I'A	*	*	*I'S	*	*
*clefC4	*	*	*clefC3	*	*	*clefC1	*	*
*k[b-]	*	*	*k[b-]	*	*	*k[b-]	*	*
*g:	*	*	*g:	*	*	*g:	*	*
*M4/4	*	*	*M4/4	*	*	*M4/4	*	*
*met(C.)	*	*	*met(C.)	*	*	*met(C.)	*	*
*	*verse1	*verse2	*	*verse1	*verse2	*	*verse1	*verse2
=1	=1	=1	=1	=1	=1	=1	=1	=1
*2\right	*	*	*2\right	*	*	*2\right	*	*
!LO:TX:t=P:problem=all\right&colon; global	!	!	!LO:TX:t=P:problem=all\right&colon; global	!	!	!LO:TX:t=P:problem=all\right&colon; global	!	!
!LO:TX:a:t=P:problem= bemol e- dopisany ołówkiem przy kluczu	!	!	!LO:TX:a:t=P:problem= bemol e- dopisany ołówkiem przy kluczu	!	!	!LO:TX:a:t=P:problem= bemol e- dopisany ołówkiem przy kluczu	!	!
!	!	!	!LO:TX:a:t=g mol.	!	!	!	!	!
!	!	!	!LO:TX:a:t=P:problem=dopisek ołówkiem	!	!	!	!	!
4G/	St[a]-	O	4d\	Sta-	O	4b-\	Sta-	O
4G/	-bat	quam	4g\	-bat	quam	4dd\	-bat	quam
4d\	ma-	tri-	4fn\	Ma-	tri-	4b-\	Ma-	tri-
4d\	-ter	-stis	4f\	-ter	-stis	4b-\	-ter	-stis
=2	=2	=2	=2	=2	=2	=2	=2	=2
4c\	do-	et	4f\	do-	et	4a\	do-	et
4c\	-lo-	af-	4f\	-lo-	af-	4a\	-lo-	af-
!	!	!LO:MO:mod=-fli-	!	!	!LO:MO:mod=-flic-	!	!	!LO:MO:mod=-fli-
2B-\	-ro-	-li-	4d\	-ro-	-lic-	2g\	-ro-	-li-
.	.	.	4en\	.	.	.	.	.
=3	=3	=3	=3	=3	=3	=3	=3	=3
2A\	-sa	-cta	2d\	-sa	-ta	2f#X/	-sa	-cta
4c#X\	iux-	fu-	4en\	iu-	fu-	4a\	iu-	fu-
4c#\	-ta	-it	4e\	-xta	-it	4a\	-xta	-it
=4	=4	=4	=4	=4	=4	=4	=4	=4
4d\	cru-	il-	4d\	cru-	il-	4a\	cru-	il-
4f\	-cem	-la	4d\	-cem	-la	4a\	-cem	-la
4en\	la-	be-	4c#X\	la-	be-	4a\	la-	be-
!	!LO:MO:mod=-cri-	!	!	!LO:MO:mod=-cri-	!	!	!LO:MO:mod=-cri-	!
4d\	-chri-	-ne-	4d\	-chri-	-ne-	4a\	-hri-	-ne-
=5	=5	=5	=5	=5	=5	=5	=5	=5
2e\	-mo-	-dic-	4d\	-mo-	-dic-	2a\	-mo-	-di-
.	.	.	4c#X\	.	.	.	.	.
!	!	!	!LO:LB:g=original	!	!	!	!	!
2d\	-sa	-ta	2d\	-sa	-ta	2a\	-sa	-cta
!LO:LB:g=original	!	!	!	!	!	!LO:LB:g=original	!	!
=6	=6	=6	=6	=6	=6	=6	=6	=6
4d\	dum	Ma-	4fn\	dum	Ma-	4b-\	dum	Ma-
4d\	pen-	-ter	4f\	pen-	-ter	4b-\	pen-	-ter
4c\	-de-	u-	4.f\	-de-	u-	4a\	-de-	u-
4A\	-bat	-ni-	.	.	.	4a\	-bat	-ni-
.	.	.	8e-X\	-bat	-ni-	.	.	.
=7	=7	=7	=7	=7	=7	=7	=7	=7
4B-\	fi-	-ge-	4d\	fi-	-ge-	2g\	fi-	-ge-
8c\L	.	.	4e-X\	-li-	.	.	.	.
8B-\J	.	.	.	.	.	.	.	.
2A\	.	.	2d\	-us	.	4f#X/	.	.
.	.	.	.	.	.	4g/	.	.
=8	=8	=8	=8	=8	=8	=8	=8	=8
4.A\	.	.	4.d\	fi-	.	4.g/	.	.
8A\	-li-	-ni-	8d\	-li-	ni-	8f#X/	-li-	-ni-
4G/	-us.	-ti	4d\	-us	-ti	4g/	-us	-ti
4r	.	.	4r	.	.	4r	.	.
=9	=9	=9	=9	=9	=9	=9	=9	=9
4.d\	dum	Ma-	1r	.	.	1r	.	.
8d\	pen-	-ter	.	.	.	.	.	.
4c\	-de-	u-	.	.	.	.	.	.
4A\	-bat	-ni	.	.	.	.	.	.
=10	=10	=10	=10	=10	=10	=10	=10	=10
4B-\	dum	u-	4.g\	dum	Ma-	2r	.	.
!	!	!LO:MO:mod=-ni-	!	!	!	!	!	!
4c\	pen-	.	.	.	.	.	.	.
.	.	.	8g\	pen-	-ter	.	.	.
!	!	!LO:MO:mod=-ge-	!	!	!	!	!	!
4d\	-de-	.	4fn\	-de-	u-	4.dd\	dum	Ma-
4B-\	-bat	-ni-	4d\	-bat	-ni	.	.	.
.	.	.	.	.	.	8dd\	pen-	-ter
!LO:LB:g=original	!	!	!LO:LB:g=original	!	!	!	!	!
=11	=11	=11	=11	=11	=11	=11	=11	=11
2A\	fi-	-ti	4en\	fi-	u-	4ccn\	-de-	u-
.	.	.	4f\	.	.	4a\	.	-ni-
4G/	.	Ma-	4g\	.	.	4b-\	.	-ge-
4A/	.	-ter	8f\L	.	-ni-	4cc\	.	.
.	.	.	8e\J	.	.	.	.	.
!	!	!	!	!	!	!LO:LB:g=original	!	!
=12	=12	=12	=12	=12	=12	=12	=12	=12
4.B-\	.	u-	4d\	.	-ge-	4dd\	.	.
.	.	.	2g\	.	.	4b-\	-bat	.
8c\	.	-ni-	.	.	.	.	.	.
4.d\	.	-ge-	.	.	.	4.a\	fi-	.
.	.	.	4f#X\	li-	-ni-	.	.	.
8D/	-li-	ni-	.	.	.	8a\	-li-	-ni-
=13	=13	=13	=13	=13	=13	=13	=13	=13
!	!	!LO:MO:mod=-ti	!	!	!	!	!	!
2G/	-us,	-ta	2g\	-us	-ti	2g\	-us	-ti
4d\	dum	Ma-	4fn\	dum	Ma-	4b-\	dum	Ma-
4d\	pen-	-ter	4f\	pen-	-ter	4b-\	pen-	-ter
=14	=14	=14	=14	=14	=14	=14	=14	=14
4c\	-de-	u-	4.f\	-de-	u-	4a\	-de-	u-
4A\	-bat	.	.	.	.	4a\	-bat	-ni-
.	.	.	8e-X\	-bat	.	.	.	.
4B-\	fi-	.	4d\	fi-	.	2g\	fi-	-ge-
4c\	.	-ni-	4e-\	.	-ni-	.	.	.
=15	=15	=15	=15	=15	=15	=15	=15	=15
4.A\	.	-ge-	4.d\	.	-ge-	4.g/	.	.
8A\	-li-	-ni-	8d\	-li-	-ni-	8f#X/	-li-	-ni-
2Bn\	-us.	-ti,	2d\	-us	-ti	2g/	-us.	-ti.
!LO:LB:g=original	!	!	!LO:LB:g=original	!	!	!	!	!
=16||	=16||	=16||	=16||	=16||	=16||	=16||	=16||	=16||
!	!	!LO:MO:mod=quae-	!	!	!LO:MO:mod=quae-	!	!	!LO:MO:mod=Quae-
4B-X\	Cu-	que	4d\	cu-	que	4g\	cu-	Que
!	!	!LO:MO:mod=mae-	!	!	!LO:MO:mod=mae-	!	!	!LO:MO:mod=mae-
4d\	-ius	me-	4g\	-ius	me-	4g\	-ius	me-
4B-\	a-	-re-	4fn\	a-	-re-	4dd\	a-	-re-
4B-\	-ni-	-bat	4f\	-ni-	-bat	4dd\	-ni-	-bat
=17	=17	=17	=17	=17	=17	=17	=17	=17
4A\	-mam	et	4f\	-mam	et	4cc\	-mam	et
4A\	ge-	do-	4f\	ge-	do-	4cc\	ge-	do-
2G/	-men-	-le-	4d\	-men-	-le-	2b-\	-men-	-le-
.	.	.	4en\	.	-[[bat]]-	.	.	.
!	!	!	!	!	!	!LO:LB:g=original	!	!
=18	=18	=18	=18	=18	=18	=18	=18	=18
!	!	!	!	!LO:MO:mod=-tem	!	!	!	!
2F#X/	-tem	-bat	2d\	-ten	-bat	2a\	-tem	-bat
!	!	!	!	!	!	!	!	!LO:MO:mod=pi-
4A\	con-	pi-	4en\	con-	pi-	4cc#X\	con-	na-
!	!	!	!	!	!	!	!	!LO:MO:mod=-a
4A\	-tri-	-a	4e\	-tris-	-a	4cc#\	-tris-	-ti
=19	=19	=19	=19	=19	=19	=19	=19	=19
!	!	!	!	!	!	!	!LO:MO:mod=-ta-	!
!	!LO:MO:mod=-sta-	!	!	!LO:MO:mod=-ta-	!	!	!	!LO:MO:mod=Ma-
4A\	-stan-	Ma-	4d\	-tan-	Ma-	4dd\	-tan-	pe-
!	!	!	!	!	!	!	!LO:MO:mod=-tam	!
!	!LO:MO:mod=-tam	!	!	!LO:MO:mod=-tam	!	!	!	!LO:MO:mod=-ter
4A\	-tem	-ter	4d\	-tem	-ter	4ff\	-tem	-nas
!	!	!LO:MO:mod=dum	!	!	!LO:MO:mod=dum	!	!	!LO:MO:mod=dum
4A\	et	cum	4c#X\	et	cum	4een\	et	cum
4A\	do-	vi-	4d\	do-	vi-	4dd\	do-	vi-
=20	=20	=20	=20	=20	=20	=20	=20	=20
2A\	-len-	-de-	4d\	-len-	-de-	2ee\	-len-	-de-
.	.	.	4c#X\	.	.	.	.	.
2A\	-tem	-bat	2d\	-tem	-bat	2dd\	-tem	-bat
!	!	!	!LO:LB:g=original	!	!	!	!	!
=21	=21	=21	=21	=21	=21	=21	=21	=21
4B-\	per-	na-	4fn\	per-	Na-	4dd\	per-	na-
4B-\	-tran-	-ti	4f\	-tran-	-ti	4dd\	-tran-	-ti
!	!	!LO:MO:mod=poe-	!	!	!LO:MO:mod=poe-	!	!	!LO:MO:mod=poe-
4A\	-si-	pe-	4.f\	-si-	pe-	4ccn\	-si-	pe-
4A\	-vit	-nas	.	.	.	4a\	-vit	-nas
.	.	.	8e-X\	-vit	-nas	.	.	.
!LO:LB:g=original	!	!	!	!	!	!	!	!
=22	=22	=22	=22	=22	=22	=22	=22	=22
8G/L	gla-	in-	4d\	gla-	in-	8b-\L	gla-	in-
8B-/J	.	.	.	.	.	8dd\J	.	.
8A/L	.	.	4e-X\	.	.	8cc\L	.	.
8G/J	.	.	.	.	.	8b-\J	.	.
4.G/	.	.	4.d\	.	.	8a\	.	.
!	!	!	!	!	!	!	!	!LO:MO:mod=-cly-
.	.	.	.	.	.	8a\	-di-	-cli-
.	.	.	.	.	.	4a\	-us	-ti
!	!	!LO:MO:mod=-cly-	!	!	!LO:MO:mod=-cly-	!	!	!
8F#X/	-di-	-cli-	8d\	-di-	-cli-	.	.	.
!	!	!	!	!	!	!LO:LB:g=original	!	!
=23	=23	=23	=23	=23	=23	=23	=23	=23
4G/	-us,	-ti	4d\	-us	-ti	4dd\	per-	Na-
4r	.	.	4r	.	.	4b-X\	-tran-	-ti
!	!	!	!	!	!	!	!	!LO:MO:mod=poe-
2r	.	.	4g\	per-	na-	4b-\	-si-	pe-
.	.	.	4e-X\	-tran-	-ti	4cc\	-vit	-nas
=24	=24	=24	=24	=24	=24	=24	=24	=24
!	!	!	!	!	!LO:MO:mod=poe-	!	!	!
4d\	per-	Na-	4f#X\	-si-	pe-	4a\	gla-	na-
4B-\	-tran-	-ti	4g\	.	.	4b-\	.	-ti
!	!	!LO:MO:mod=poe-	!	!	!	!	!	!LO:MO:mod=poe-
4B-\	-si-	pe-	4d\	.	.	4g\	.	pe-
4c\	-vit	-nas	4G/	.	.	4cc\	.	-nas
=25	=25	=25	=25	=25	=25	=25	=25	=25
4d\	per-	na-	4A/	.	.	4f#X/	.	in-
4d\	-tran-	-ti	4d\	.	.	4g/	.	.
!	!	!LO:MO:mod=poe-	!	!	!	!	!	!
4c\	-si-	pe-	4en\	.	.	4a/	.	.
4A\	-vit	-nas	4d\	-vit	-nas	4f#/	.	.
!	!	!	!LO:LB:g=original	!	!	!	!	!
=26	=26	=26	=26	=26	=26	=26	=26	=26
!	!	!LO:MO:mod=poe-	!	!	!	!	!	!
8B-\L	gla-	pe-	4d\	gla-	in-	8g\L	.	.
8d\	.	.	.	.	.	8b-\	.	.
8c\	.	.	4e-X\	.	.	8a\	.	.
8B-\J	.	.	.	.	.	8g\J	.	.
4A\	.	.	2d\	.	.	4f#X/	.	.
4B-\	.	-nas	.	.	.	4g/	.	.
!LO:LB:g=original	!	!	!	!	!	!	!	!
=27	=27	=27	=27	=27	=27	=27	=27	=27
4.A\	.	in-	4.d\	.	.	4.g/	.	.
!	!	!LO:MO:mod=-cly-	!	!	!LO:MO:mod=-cly-	!	!	!LO:MO:mod=-cly-
8A\	-di-	-cli-	8d\	-di-	-cli-	8f#X/	-di-	-cli-
!	!	!	!	!	!	!	!	!LO:MO:mod=-ti
2Bn\	-us	-ti.	2d\	-us	-ti.	2g/	-us	-ty.
==	==	==	==	==	==	==	==	==
*-	*-	*-	*-	*-	*-	*-	*-	*-
!!!system-decoration: [(s1,s2,s3)]
!!!RDF**kern: > = above
!!!RDF**kern: < = below
!!!EED: Mateusz Mrugas
!!!EEV: 2021-02-17
!!!ENC: Krzysztof Stępień
!!!END: 2021-02-09
!!!YEC: Copyright 2022 Narodowy Instytut Fryderyka Chopina (https://polishscores.org)
!!!YEM: License CC-BY-4.0 (https://creativecommons.org/licenses/by/4.0)
